images/UpgradeGraphics/BCHUpgrades_Icons/20.svg

<svg xmlns="http://www.w3.org/2000/svg" fill="none" viewBox="0 0.01 597.56 871.72">
<g id="Group 125">
<rect id="Rectangle 71" width="161.658" height="163.136" transform="matrix(0.866025 -0.5 0.866025 0.5 157 80.8389)" fill="url(#paint0_linear_154_45)"/>
<g id="Group 124">
<rect id="Rectangle 74" width="343.689" height="63.8844" transform="matrix(0.866025 -0.5 0 1 297 807.844)" fill="url(#paint1_linear_154_45)"/>
<g id="Rectangle 77" style="mix-blend-mode:screen">
<path d="M315 321.429L542.188 332V630.522L315 761.689V321.429Z" fill="url(#paint2_linear_154_45)"/>
</g>
<g id="Rectangle 76" style="mix-blend-mode:screen">
<path d="M57.9922 204.002L299.021 303.059V770.43L58.011 631.282L57.9922 204.002Z" fill="url(#paint3_linear_154_45)"/>
</g>
<rect id="Rectangle 72" width="343.689" height="346.311" transform="matrix(0.866025 -0.5 0.866025 0.5 0 634.854)" fill="url(#paint4_linear_154_45)"/>
<g id="Rectangle 75" style="mix-blend-mode:screen">
<rect x="4.33013" width="288.422" height="289.579" transform="matrix(0.866025 -0.5 0.866025 0.5 43.4708 637.885)" stroke="white" stroke-width="5"/>
</g>
<rect id="Rectangle 73" width="343.689" height="63.8844" transform="matrix(0.866025 0.5 0 1 1 635.009)" fill="url(#paint5_linear_154_45)"/>
<rect id="Rectangle 70" width="161.658" height="563.916" transform="matrix(0.866025 -0.5 0 1 297 161.839)" fill="url(#paint6_linear_154_45)"/>
<rect id="Rectangle 69" width="161.658" height="563.916" transform="matrix(0.866025 0.5 0 1 157 81.0098)" fill="url(#paint7_linear_154_45)"/>
</g>
<g id="32MB" filter="url(#filter0_d_154_45)">
<path d="M268.405 109.551C266.719 110.524 264.826 111.364 262.724 112.071C260.599 112.764 258.544 113.204 256.558 113.391L254.445 109.651C256.038 109.504 257.643 109.191 259.26 108.711C260.877 108.231 262.308 107.631 263.555 106.911C264.964 106.098 265.796 105.298 266.05 104.511C266.304 103.724 265.946 103.051 264.976 102.491C264.052 101.958 262.967 101.744 261.719 101.851C260.472 101.958 259.052 102.471 257.459 103.391L254.895 104.871L251.189 102.731L250.288 94.4109L252.921 95.2109L240.207 102.551L235.704 99.9509L252.678 90.1509L256.315 92.2509L257.251 100.551L252.782 101.251L254.41 100.311C257.389 98.5909 260.311 97.6775 263.174 97.5709C266.038 97.4642 268.521 98.0175 270.622 99.2309C271.985 100.018 272.909 100.964 273.393 102.071C273.855 103.164 273.717 104.351 272.978 105.631C272.239 106.911 270.715 108.218 268.405 109.551ZM280.249 102.233L276.612 100.133L277.132 89.6326C277.201 88.8192 277.143 88.1592 276.959 87.6526C276.774 87.1459 276.52 86.7326 276.196 86.4126C275.896 86.0792 275.561 85.8059 275.192 85.5926C274.222 85.0326 273.148 84.7992 271.97 84.8926C270.792 84.9592 269.568 85.3592 268.298 86.0926C267.282 86.6792 266.532 87.3392 266.047 88.0726C265.585 88.7926 265.469 89.5659 265.7 90.3926L258.98 91.2326C258.518 89.8992 258.714 88.5192 259.569 87.0926C260.423 85.6659 261.936 84.3259 264.107 83.0726C265.908 82.0326 267.779 81.2992 269.719 80.8726C271.658 80.4192 273.529 80.2859 275.33 80.4726C277.155 80.6459 278.806 81.1592 280.284 82.0126C281.069 82.4659 281.751 82.9792 282.328 83.5526C282.905 84.0992 283.321 84.7926 283.575 85.6326C283.852 86.4592 283.956 87.5059 283.887 88.7726L283.436 97.4726L280.319 96.9126L294.002 89.0126L298.575 91.6526L280.249 102.233ZM302.414 89.4357L278.166 75.4357L282.807 72.7557L310.243 76.6757L307.784 78.0957L300.821 62.3557L305.428 59.6957L329.746 73.6557L324.481 76.6957L308.269 67.3757L309.239 66.8157L314.746 79.3557L312.218 80.8157L290.325 77.7357L291.502 77.0557L307.68 86.3957L302.414 89.4357ZM335.499 70.3341L311.25 56.3341L323.098 49.4941C326.146 47.7341 329.01 46.7475 331.689 46.5341C334.391 46.3075 336.688 46.7408 338.582 47.8341C339.852 48.5675 340.649 49.3875 340.972 50.2941C341.273 51.1875 341.134 52.0941 340.557 53.0141C339.979 53.9341 338.986 54.8008 337.578 55.6141L336.816 54.4141C338.34 53.5341 339.945 52.9008 341.631 52.5141C343.293 52.1141 344.933 52.0075 346.55 52.1941C348.189 52.3675 349.714 52.8608 351.122 53.6741C353.201 54.8741 354.009 56.2875 353.547 57.9141C353.062 59.5275 351.226 61.2541 348.039 63.0941L335.499 70.3341ZM336.85 64.6741L343.397 60.8941C344.852 60.0541 345.718 59.2875 345.995 58.5941C346.273 57.8741 345.891 57.2141 344.852 56.6141C343.836 56.0275 342.704 55.8141 341.457 55.9741C340.21 56.1075 338.859 56.5941 337.404 57.4341L330.442 61.4541L326.354 59.0941L332.347 55.6341C333.709 54.8475 334.518 54.1141 334.772 53.4341C335.026 52.7275 334.668 52.0941 333.698 51.5341C332.751 50.9875 331.677 50.7941 330.476 50.9541C329.275 51.0875 327.994 51.5475 326.631 52.3341L321.054 55.5541L336.85 64.6741Z" fill="white"/>
</g>
</g>
<defs>
<filter id="filter0_d_154_45" x="230.078" y="43.2539" width="132.078" height="79.6367" filterUnits="userSpaceOnUse" color-interpolation-filters="sRGB">
<feFlood flood-opacity="0" result="BackgroundImageFix"/>
<feColorMatrix in="SourceAlpha" type="matrix" values="0 0 0 0 0 0 0 0 0 0 0 0 0 0 0 0 0 0 127 0" result="hardAlpha"/>
<feOffset dy="4"/>
<feGaussianBlur stdDeviation="2"/>
<feComposite in2="hardAlpha" operator="out"/>
<feColorMatrix type="matrix" values="0 0 0 0 0 0 0 0 0 0 0 0 0 0 0 0 0 0 0.25 0"/>
<feBlend mode="normal" in2="BackgroundImageFix" result="effect1_dropShadow_154_45"/>
<feBlend mode="normal" in="SourceGraphic" in2="effect1_dropShadow_154_45" result="shape"/>
</filter>
<linearGradient id="paint0_linear_154_45" x1="3.02988" y1="175.755" x2="128.379" y2="-30.9614" gradientUnits="userSpaceOnUse">
<stop stop-color="#13B3D3"/>
<stop offset="1" stop-color="#13EDB1"/>
</linearGradient>
<linearGradient id="paint1_linear_154_45" x1="6.44159" y1="68.8258" x2="18.6553" y2="-40.5257" gradientUnits="userSpaceOnUse">
<stop stop-color="#13B3D3"/>
<stop offset="1" stop-color="#13EDB1"/>
</linearGradient>
<linearGradient id="paint2_linear_154_45" x1="39.5016" y1="749.346" x2="-46.4338" y2="497.721" gradientUnits="userSpaceOnUse">
<stop stop-color="#13EEB0" stop-opacity="0.26"/>
<stop offset="0.501061" stop-color="#13B3D3" stop-opacity="0.26"/>
<stop offset="0.756675" stop-color="#13B3D3" stop-opacity="0"/>
</linearGradient>
<linearGradient id="paint3_linear_154_45" x1="-112.86" y1="627.233" x2="20.6466" y2="174.594" gradientUnits="userSpaceOnUse">
<stop stop-color="#13EEB0" stop-opacity="0.26"/>
<stop offset="0.501061" stop-color="#13B3D3" stop-opacity="0.26"/>
<stop offset="0.756675" stop-color="#13B3D3" stop-opacity="0"/>
</linearGradient>
<linearGradient id="paint4_linear_154_45" x1="6.44159" y1="373.098" x2="272.352" y2="-66.0794" gradientUnits="userSpaceOnUse">
<stop stop-color="#13B3D3"/>
</linearGradient>
<linearGradient id="paint5_linear_154_45" x1="6.44159" y1="68.8258" x2="18.6553" y2="-40.5257" gradientUnits="userSpaceOnUse">
<stop stop-color="#13B3D3"/>
<stop offset="1" stop-color="#13EDB1"/>
</linearGradient>
<linearGradient id="paint6_linear_154_45" x1="3.02988" y1="607.535" x2="382.835" y2="426.339" gradientUnits="userSpaceOnUse">
<stop stop-color="#13B3D3"/>
<stop offset="1" stop-color="#13EDB1"/>
</linearGradient>
<linearGradient id="paint7_linear_154_45" x1="-104.065" y1="621.557" x2="248.412" y2="630.425" gradientUnits="userSpaceOnUse">
<stop stop-color="#13B3D3"/>
<stop offset="1" stop-color="#13EDB1"/>
</linearGradient>
</defs>
</svg>

<svg xmlns="http://www.w3.org/2000/svg" fill="none" viewBox="0 0.01 597.56 871.72" xmlns:v="https://vecta.io/nano"><path transform="matrix(.866025 -.5 .866025 .5 157 80.8389)" fill="url(#A)" d="M0 0h161.658v163.136H0z"/><path transform="matrix(.866025 -.5 0 1 297 807.844)" fill="url(#B)" d="M0 0h343.689v63.884H0z"/><path d="M315 321.429L542.188 332V630.522L315 761.689V321.429Z" fill="url(#C)" style="mix-blend-mode:screen"/><path d="M57.992 204.002l241.029 99.057V770.43L58.011 631.282l-.019-427.28z" fill="url(#D)" style="mix-blend-mode:screen"/><path transform="matrix(.866025 -.5 .866025 .5 0 634.854)" fill="url(#E)" d="M0 0h343.689v346.311H0z"/><path transform="matrix(.866025 -.5 .866025 .5 43.4708 637.885)" stroke="#fff" stroke-width="5" d="M4.33 0h288.422v289.579H4.33z" style="mix-blend-mode:screen"/><path transform="matrix(.866025 .5 0 1 1 635.009)" fill="url(#B)" d="M0 0h343.689v63.884H0z"/><path transform="matrix(.866025 -.5 0 1 297 161.839)" fill="url(#F)" d="M0 0h161.658v563.916H0z"/><path transform="matrix(.866025 .5 0 1 157 81.0098)" fill="url(#G)" d="M0 0h161.658v563.916H0z"/><path d="M268.405 109.551c-1.686.973-3.579 1.813-5.681 2.52-2.125.693-4.18 1.133-6.166 1.32l-2.113-3.74c1.593-.147 3.198-.46 4.815-.94s3.048-1.08 4.295-1.8c1.409-.813 2.241-1.613 2.495-2.4s-.104-1.46-1.074-2.02c-.924-.533-2.009-.747-3.257-.64s-2.667.62-4.26 1.54l-2.564 1.48-3.706-2.14-.901-8.32 2.633.8-12.714 7.34-4.503-2.6 16.974-9.8 3.637 2.1.936 8.3-4.469.7 1.628-.94c2.979-1.72 5.901-2.634 8.764-2.74s5.347.447 7.448 1.66c1.363.787 2.287 1.733 2.771 2.84.462 1.093.324 2.28-.415 3.56s-2.263 2.587-4.573 3.92zm11.844-7.318l-3.637-2.1.52-10.5c.069-.813.011-1.473-.173-1.98s-.439-.92-.763-1.24c-.3-.333-.635-.607-1.004-.82-.97-.56-2.044-.793-3.222-.7-1.178.067-2.402.467-3.672 1.2-1.016.587-1.766 1.247-2.251 1.98-.462.72-.578 1.493-.347 2.32l-6.72.84c-.462-1.333-.266-2.713.589-4.14s2.367-2.767 4.538-4.02c1.801-1.04 3.672-1.773 5.612-2.2 1.939-.453 3.81-.587 5.611-.4 1.825.173 3.476.687 4.954 1.54.785.453 1.467.967 2.044 1.54.577.547.993 1.24 1.247 2.08.277.827.381 1.873.312 3.14l-.451 8.7-3.117-.56 13.683-7.9 4.573 2.64-18.326 10.58zm22.165-12.797l-24.248-14 4.641-2.68 27.436 3.92-2.459 1.42-6.963-15.74 4.607-2.66 24.318 13.96-5.265 3.04-16.212-9.32.97-.56 5.507 12.54-2.528 1.46-21.893-3.08 1.177-.68 16.178 9.34-5.266 3.04zm33.085-19.102l-24.249-14 11.848-6.84c3.048-1.76 5.912-2.747 8.591-2.96 2.702-.227 4.999.207 6.893 1.3 1.27.733 2.067 1.553 2.39 2.46.301.893.162 1.8-.415 2.72s-1.571 1.787-2.979 2.6l-.762-1.2c1.524-.88 3.129-1.513 4.815-1.9 1.662-.4 3.302-.507 4.919-.32a11.45 11.45 0 0 1 4.572 1.48c2.079 1.2 2.887 2.613 2.425 4.24-.485 1.613-2.321 3.34-5.508 5.18l-12.54 7.24zm1.351-5.66l6.547-3.78c1.455-.84 2.321-1.607 2.598-2.3.278-.72-.104-1.38-1.143-1.98-1.016-.587-2.148-.8-3.395-.64-1.247.133-2.598.62-4.053 1.46l-6.962 4.02-4.088-2.36 5.993-3.46c1.362-.787 2.171-1.52 2.425-2.2.254-.707-.104-1.34-1.074-1.9-.947-.547-2.021-.74-3.222-.58-1.201.133-2.482.593-3.845 1.38l-5.577 3.22 15.796 9.12z" fill="#fff"/><defs><linearGradient id="A" x1="3.03" y1="175.755" x2="128.379" y2="-30.961" href="#H"><stop stop-color="#13b3d3"/><stop offset="1" stop-color="#13edb1"/></linearGradient><linearGradient id="B" x1="6.442" y1="68.826" x2="18.655" y2="-40.526" href="#H"><stop stop-color="#13b3d3"/><stop offset="1" stop-color="#13edb1"/></linearGradient><linearGradient id="C" x1="39.502" y1="749.346" x2="-46.434" y2="497.721" href="#H"><stop stop-color="#13eeb0" stop-opacity=".26"/><stop offset=".501" stop-color="#13b3d3" stop-opacity=".26"/><stop offset=".757" stop-color="#13b3d3" stop-opacity="0"/></linearGradient><linearGradient id="D" x1="-112.86" y1="627.233" x2="20.647" y2="174.594" href="#H"><stop stop-color="#13eeb0" stop-opacity=".26"/><stop offset=".501" stop-color="#13b3d3" stop-opacity=".26"/><stop offset=".757" stop-color="#13b3d3" stop-opacity="0"/></linearGradient><linearGradient id="E" x1="6.442" y1="373.098" x2="272.352" y2="-66.079" href="#H"><stop stop-color="#13b3d3"/></linearGradient><linearGradient id="F" x1="3.03" y1="607.535" x2="382.835" y2="426.339" href="#H"><stop stop-color="#13b3d3"/><stop offset="1" stop-color="#13edb1"/></linearGradient><linearGradient id="G" x1="-104.065" y1="621.557" x2="248.412" y2="630.425" href="#H"><stop stop-color="#13b3d3"/><stop offset="1" stop-color="#13edb1"/></linearGradient><linearGradient id="H" gradientUnits="userSpaceOnUse"/></defs></svg>
